X:87
T:The Liverpool Hornpipe
N:Allan's # 87  pg 22
N:Trad/Anon
N:CONVERTED FROM NOTEWORTHY COMPOSER  (WWW.NOTEWORTHYSOFTWARE.COM) BY
N:ABC2NWC (HTTP://MEMBERS.AOL.COM/ABACUSMUSIC/), WITH
Z: (INTO NWC) VINCE BRENNAN 2002   (WWW.SOSYOURMOM.COM)
I:abc2nwc
M:4/4
L:1/8
K:D
A3/2G/2|F3/2D/2F3/2A/2 d3/2f/2a3/2f/2|g3/2f/2e3/2c/2 d3/2c/2B3/2A/2|G2B3/2G/2 F2A3/2F/2|E3/2D/2E3/2F/2 G3/2B/2A3/2G/2|
F3/2D/2F3/2A/2 d3/2f/2a3/2f/2|g3/2f/2e3/2c/2 d3/2c/2B3/2A/2|d3/2f/2a3/2f/2 b3/2g/2e3/2c/2|.d2.d2.d2|]
((3ABc)|d2f3/2d/2 c2e3/2c/2|B3/2A/2B3/2c/2 d3/2B/2A3/2F/2|G2B3/2G/2F2A3/2F/2|E3/2D/2E3/2F/2 G3/2B/2A3/2G/2|
F3/2D/2F3/2A/2 d3/2f/2a3/2f/2|g3/2f/2e3/2c/2 d3/2c/2B3/2A/2|d3/2f/2a3/2f/2 b3/2g/2e3/2c/2|.d2.d2.d2:|
